X:20
T:The boys of Malin
R:Reel
O:Ireland
D:Fiddlesticks CD
S:Richard Darsie's web page
Z:Transcription, minor arr., chords:Mike Long
M:C|
L:1/8
K:A
"A"ABcd eAce|"D"fedf "E"edcB|"A"ABcd eAce|\
[1 "E"fdBc dBGB:|[2 "E"fdBc defg|]
"A"aA ~A2 eAce|"A"a2ag "D"~f3 g|\
"A"aA ~A2 eAce|"E"fdBc defg|\
"A"aA ~A2 eAce|"A"a2ag "D"~f3 g|
"D"afge fdec|"E"dcBc d2 cB\
|:"A"Aece Aece|"A"Aece "E"dBcB|\
"A"Aece Aece|"D"fdBc "E"d2 cB:|
